X:1
T:F Major Samuel Babcock, 1803
T:Isaac Watts, 1706 (Hymn 148, Book 1)           66. 66. 88.
T:Florence
T:Transcribed from The Middlesex Harmony, 1803.
%%score [ 1 2 3 ]
L:1/8
Q:1/4=90
M:2/4
K:F
V:1 treble nm="Tr." snm="Tr."
V:2 treble-8 nm="T." snm="T."
V:3 bass nm="B." snm="B."
V:1
 F2 | A3 d | c2 B2 |{B} A3 A/B/ | c3 f/d/ | c2 cB | c3 f | f3 c | c3 A | B2 z f | fd gf | e2 d>c | %12
w: 1.~Im-|mense com-|pas- sion|reigns In *|our Im- *|ma- nuel's *|heart, When|he de-|scends to|act A|me- * * di-|a- tor's *|
 c4 |: A2 Bc | d3 f | gf ed | dc z F | A3 A | A2 z c | f3 f | e2 z f/d/ | cf ed | cf ed | c2 B2 | %24
w: part:|He is a|friend and|bro- * ther *|too; * Di-|vine- ly|kind, di-|vine- ly|true. Di- *|vine- * ly *|kind, * di- *|vine- ly|
 A4 :| %25
w: true.|
V:2
 A2 | c3 f | e2 d2 |{d} c3 f | f3 d/B/ | A2 G2 | F3 c | c3 c | A3 ^c | d2 z c | df ed | c2 =B2 | %12
w: 2.~In|Je- sus|we be-|hold His|Fa- ther's *|glo- rious|face, Shi-|ning for-|ev- er|bright, With|mild * * and|love- ly|
 c4 |: fc BA | B3 A | G2 GA/B/ | BA z A | (c2 A/F/) A/c/ | c2 z f | (c2 A/F/) A/c/ | c2 z c/B/ | %21
w: rays;|Th'e- * ter- nal|God's e-|ter- nal * *|Son * In-|he- * * rits *|and par-|takes * * the *|throne, In- *|
 Ad cB | Ad cB | A2 G2 | F4 :| %25
w: he- * rits *|and * par- *|takes the|throne.|
V:3
 F,2 | F,2 F,2 | C,2 D,E, | F,3 F, | F,2 B,,2 | C,2 C,2 | F,3 F, | F,3 F, | F,2 A,2 | G,2 z F, | %10
w: 3.~At|length the|Lord the *|Judge His|aw- ful|throne a-|scends, And|drives the|re- bels|far From|
w: 4.~But|when for|works of *|peace The|great Re-|dee- mer|comes, What|gen- tle|cha- rac-|ters, What|
 (D,2 E,)F, | G,2 G,2 | C,4 |: F,2 G,A, | G,2 F,2 | C2 C,2 | F,2 z F, | F,2 F,2 | F,2 F,2 | %19
w: fa- * vo-|rites and|friends:|Then shall the|saints com-|plete- ly|prove The|heights and|depths of|
w: ti- * tles|he as-|sumes!|Light of the|world, and|life of|men; Nor|will he|bear those|
 F,2 F,2 | C,2 z F, | F,2 C,2 | F,G, A,B, | C2 C,2 | F,4 :| %25
w: all his|love, The|heights and|depths * of *|all his|love.|
w: names in|vain, Nor|will he|bear * those *|names in|vain.|

